X:1
T:Glorify His Name!
T:Elisha Albright Hoffman (1839-1929)
T:Glorify His Name!
T:Public Domain
T:Public Domain
C:Elisha Albright Hoffman (1839-1929)
Z:Public Domain
%%score 1 2
L:1/8
M:4/4
K:Ab
V:1 treble 
V:2 bass 
V:1
 [CE]2 [CE]2 [CE]2 [CE]2 | [DF]2 [DF]2 [DF]4 | [EA][EA][EA][EA] [CA]2 [CA]2 | [Ec]2 [DB]2 [CA]4 | %4
w: 1.~Praise the Lord who|ran- somed you,|Glor- i- fy His name for-|ev- er- more!|
w: 2.~Oh, what bless- ings|He be- stows!|Glor- i- fy His name for-|ev- er- more!|
w: 3.~Has He not been|kind to you?|Glor- i- fy His name for-|ev- er- more!|
w: 4.~Let my tongue un-|loos- èd be,|Glor- i- fy His name for-|ev- er- more!|
 [CE]2 [CE]2 [CE]2 [CE]2 | [DF]2 [DF]2 [DF]4 | [EA][EA][EA][EA] [CA]2 [CA]2 | [Ec]2 [DB]2 [CA]4 || %8
w: Faith- ful He has|been, and true,|Glor- i- fy His name for-|ev- er- more!|
w: How His grace from|Heav- en flows!|Glor- i- fy His name for-|ev- er- more!|
w: What more could your|Sav- ior do?|Glor- i- fy His name for-|ev- er- more!|
w: Let me, through e-|ter- ni- ty,|Glor- i- fy His name for-|ev- er- more!|
"^Refrain" [Ae][Ae][Ae][Ae] [Ae]4 | [Ec][Ec][Ec][Ec] [Ec]4 | [EA][EA][EA][EA] [EA]2 [EA]2 | %11
w: |||
w: Mag- ni- fy His name!|Glor- i- fy His name!|Sing your al- le- lu- ias|
w: |||
w: |||
 [Ec]2 [Ac]2 [GB]4 | [Ae][Ae][Ae][Ae] [Ae]4 | [Ec][Ec][Ec][Ec] [Ec]4 | %14
w: |||
w: more and more!|Mag- ni- fy His name!|Glor- i- fy His name!|
w: |||
w: |||
 [EA][EA][EA][EA] [EA]2 [EA]2 | [Ec]2 [DB]2 [CA]4 |] %16
w: ||
w: Sing and praise the Lord for-|ev- er- more!|
w: ||
w: ||
V:2
 [A,,A,]2 [A,,A,]2 [A,,A,]2 [A,,A,]2 | [D,A,]2 [D,A,]2 [D,A,]4 | %2
 [C,A,][C,A,][C,A,][C,A,] [F,A,]2 [F,A,]2 | [E,A,]2 [E,G,]2 [A,,A,]4 | %4
 [A,,A,]2 [A,,A,]2 [A,,A,]2 [A,,A,]2 | [D,A,]2 [D,A,]2 [D,A,]4 | %6
 [C,A,][C,A,][C,A,][C,A,] [F,A,]2 [F,A,]2 | [E,A,]2 [E,G,]2 [A,,A,]4 || %8
 [A,,C][A,,C][A,,C][A,,C] [A,,C]4 | [A,,A,][A,,A,][A,,A,][A,,A,] [A,,A,]4 | %10
 [A,,C][A,,C][A,,C][A,,C] [A,,C]2 [A,,C]2 | [A,,A,]2 [A,,E]2 [E,E]4 | %12
 [A,,C][A,,C][A,,C][A,,C] [A,,C]4 | [A,,A,][A,,A,][A,,A,][A,,A,] [A,,A,]4 | %14
 [A,,C][A,,C][A,,C][A,,C] [A,,C]2 [A,,C]2 | [E,A,]2 [E,G,]2 [A,,A,]4 |] %16

